packages/icons/src/image.svg

<svg width="15" height="15" viewBox="0 0 15 15" fill="none" xmlns="http://www.w3.org/2000/svg">
  <path
    fill-rule="evenodd"
    clip-rule="evenodd"
    d="M2.5 1H12.5C13.3284 1 14 1.67157 14 2.5V12.5C14 13.3284 13.3284 14 12.5 14H2.5C1.67157 14 1 13.3284 1 12.5V2.5C1 1.67157 1.67157 1 2.5 1ZM2.5 2C2.22386 2 2 2.22386 2 2.5V8.3636L3.6818 6.6818C3.76809 6.59551 3.88572 6.54797 4.00774 6.55007C4.12975 6.55216 4.24568 6.60372 4.32895 6.69293L7.87355 10.4901L10.6818 7.6818C10.8575 7.50607 11.1425 7.50607 11.3182 7.6818L13 9.3636V2.5C13 2.22386 12.7761 2 12.5 2H2.5ZM2 12.5V9.6364L3.98887 7.64753L7.5311 11.4421L8.94113 13H2.5C2.22386 13 2 12.7761 2 12.5ZM12.5 13H10.155L8.48336 11.153L11 8.6364L13 10.6364V12.5C13 12.7761 12.7761 13 12.5 13ZM6.64922 5.5C6.64922 5.03013 7.03013 4.64922 7.5 4.64922C7.96987 4.64922 8.35078 5.03013 8.35078 5.5C8.35078 5.96987 7.96987 6.35078 7.5 6.35078C7.03013 6.35078 6.64922 5.96987 6.64922 5.5ZM7.5 3.74922C6.53307 3.74922 5.74922 4.53307 5.74922 5.5C5.74922 6.46693 6.53307 7.25078 7.5 7.25078C8.46693 7.25078 9.25078 6.46693 9.25078 5.5C9.25078 4.53307 8.46693 3.74922 7.5 3.74922Z"
    fill="currentColor"
  />
</svg>

<svg xmlns="http://www.w3.org/2000/svg" width="15" height="15" fill="none"><path fill="currentColor" fill-rule="evenodd" d="M2.5 1h10A1.5 1.5 0 0 1 14 2.5v10a1.5 1.5 0 0 1-1.5 1.5h-10A1.5 1.5 0 0 1 1 12.5v-10A1.5 1.5 0 0 1 2.5 1m0 1a.5.5 0 0 0-.5.5v5.864l1.682-1.682a.45.45 0 0 1 .647.01l3.545 3.798 2.808-2.808a.45.45 0 0 1 .636 0L13 9.364V2.5a.5.5 0 0 0-.5-.5zM2 12.5V9.636l1.989-1.988 3.542 3.794L8.941 13H2.5a.5.5 0 0 1-.5-.5m10.5.5h-2.345l-1.672-1.847L11 8.636l2 2V12.5a.5.5 0 0 1-.5.5M6.65 5.5a.85.85 0 1 1 1.7 0 .85.85 0 0 1-1.7 0m.85-1.75a1.75 1.75 0 1 0 0 3.5 1.75 1.75 0 0 0 0-3.5" clip-rule="evenodd"/></svg>
